X: 10454
T: Donegal Traveller, The
R: reel
M: 4/4
K: Cmajor
|:g2 g^f gece|gage fdde|g2g^f gece|fagf ecc2|
g2 g^f gece|gage fddf|efge agfe|eagf ecc2:|
|:GcEc GcBc|GcBc AFD2|GcEc GcBc|Bagf ecc2|
GcBc GcBc|GcBc AFD2|agfe fedc|Bagf ecc2:|

